images/mobilephone.svg

<svg width="96" height="96" fill="none" xmlns="http://www.w3.org/2000/svg"><circle cx="48" cy="48" r="48" fill="#FCB72B"/><path fill-rule="evenodd" clip-rule="evenodd" d="M53.7996 24H33.0107c-2.2068.0028-3.9951 1.791-3.9979 3.9979v39.9786c.0028 2.2069 1.7911 3.9951 3.9979 3.9979H53V70.544c-.0038-3.6019 1.0625-7.1246 3.064-10.1194.2119-.3175.1693-.7398-.1-1.0091l-5.597-5.597c-.5173-.5179-.7915-1.2301-.7554-1.9612.0364-.7314.38-1.4126.9457-1.8768 1.0896-.8329 2.6306-.714 3.5797.2757l7.8926 7.8928 1.1306-1.1306-5.3627-5.3643V27.9979c-.0028-2.2069-1.7911-3.9951-3.9979-3.9979zm2.3987 26.0549l-.9307-.9307c-1.534-1.5672-4.0011-1.7305-5.7281-.3786-.9135.7508-1.4678 1.853-1.5256 3.0346-.0576 1.1814.3862 2.3321 1.2225 3.1689l5.1413 5.1415c-1.9174 3.0897-2.9456 6.6486-2.9712 10.2847H33.0107c-1.3245 0-2.3987-1.0743-2.3987-2.3988v-2.3987h19.9893v-1.5991H30.612V30.3966h25.5863v19.6583zM30.612 28.7974h25.5863v-.7995c0-1.3245-1.0742-2.3988-2.3987-2.3988H33.0107c-1.3245 0-2.3987 1.0743-2.3987 2.3988v.7995zm29.543 13.8031l-1.0782 1.1786 4.9036 4.4952c1.1544 1.062 1.8124 2.5584 1.8128 4.1266v19.5735h1.5991V52.4009c-.0019-2.017-.8479-3.9403-2.3331-5.3054l-4.9042-4.495zm-26.3447-4.2082h3.1983c.8833 0 1.5991-.7158 1.5991-1.5991v-3.1983c0-.8833-.7158-1.5992-1.5991-1.5992h-3.1983c-.8834 0-1.5992.7159-1.5992 1.5992v3.1983c0 .8833.7158 1.5991 1.5992 1.5991zm0-4.7974h3.1983v3.1983h-3.1983v-3.1983zm11.194 4.7974H41.806c-.8833 0-1.5992-.7158-1.5992-1.5991v-3.1983c0-.8833.7159-1.5992 1.5992-1.5992h3.1983c.8833 0 1.5991.7159 1.5991 1.5992v3.1983c0 .8833-.7158 1.5991-1.5991 1.5991zm0-4.7974H41.806v3.1983h3.1983v-3.1983zm4.7974 4.7974H53c.8834 0 1.5992-.7158 1.5992-1.5991v-3.1983c0-.8833-.7158-1.5992-1.5992-1.5992h-3.1983c-.8833 0-1.5991.7159-1.5991 1.5992v3.1983c0 .8833.7158 1.5991 1.5991 1.5991zm0-4.7974H53v3.1983h-3.1983v-3.1983zM37.0086 46.3881h-3.1983c-.8834 0-1.5992-.7159-1.5992-1.5992v-3.1983c0-.8833.7158-1.5991 1.5992-1.5991h3.1983c.8833 0 1.5991.7158 1.5991 1.5991v3.1983c0 .8833-.7158 1.5992-1.5991 1.5992zm0-4.7975h-3.1983v3.1983h3.1983v-3.1983zm-3.1983 12.7932h3.1983c.8833 0 1.5991-.7158 1.5991-1.5992v-3.1982c0-.8834-.7158-1.5992-1.5991-1.5992h-3.1983c-.8834 0-1.5992.7158-1.5992 1.5992v3.1982c0 .8834.7158 1.5992 1.5992 1.5992zm0-4.7974h3.1983v3.1982h-3.1983v-3.1982zm11.194-3.1983H41.806c-.8833 0-1.5992-.7159-1.5992-1.5992v-3.1983c0-.8833.7159-1.5991 1.5992-1.5991h3.1983c.8833 0 1.5991.7158 1.5991 1.5991v3.1983c0 .8833-.7158 1.5992-1.5991 1.5992zm0-4.7975H41.806v3.1983h3.1983v-3.1983zm4.7974 4.7975H53c.8834 0 1.5992-.7159 1.5992-1.5992v-3.1983c0-.8833-.7158-1.5991-1.5992-1.5991h-3.1983c-.8833 0-1.5991.7158-1.5991 1.5991v3.1983c0 .8833.7158 1.5992 1.5991 1.5992zm0-4.7975H53v3.1983h-3.1983v-3.1983zm-4.7974 12.7932H41.806c-.8833 0-1.5992-.7158-1.5992-1.5992v-3.1982c0-.8834.7159-1.5992 1.5992-1.5992h3.1983c.8833 0 1.5991.7158 1.5991 1.5992v3.1982c0 .8834-.7158 1.5992-1.5991 1.5992zm0-4.7974H41.806v3.1982h3.1983v-3.1982zm-11.194 12.7931h3.1983c.8833 0 1.5991-.7158 1.5991-1.5991v-3.1983c0-.8833-.7158-1.5992-1.5991-1.5992h-3.1983c-.8834 0-1.5992.7159-1.5992 1.5992v3.1983c0 .8833.7158 1.5991 1.5992 1.5991zm0-4.7974h3.1983v3.1983h-3.1983v-3.1983zm11.194 4.7974H41.806c-.8833 0-1.5992-.7158-1.5992-1.5991v-3.1983c0-.8833.7159-1.5992 1.5992-1.5992h3.1983c.8833 0 1.5991.7159 1.5991 1.5992v3.1983c0 .8833-.7158 1.5991-1.5991 1.5991zm0-4.7974H41.806v3.1983h3.1983v-3.1983zm-.7996 9.5949h-1.5991v1.5991h1.5991V67.177z" fill="#495567"/></svg>

<svg width="96" height="96" viewBox="0 0 96 96" fill="none" xmlns="http://www.w3.org/2000/svg">
<g id="Group 8">
<circle id="Oval" cx="48" cy="48" r="48" fill="#FCB72B"/>
<path id="Combined Shape" fill-rule="evenodd" clip-rule="evenodd" d="M53.7996 24H33.0107C30.8039 24.0028 29.0156 25.791 29.0128 27.9979V67.9765C29.0156 70.1834 30.8039 71.9716 33.0107 71.9744H53V70.544C52.9962 66.9421 54.0625 63.4194 56.064 60.4246C56.2759 60.1071 56.2333 59.6848 55.964 59.4155L50.367 53.8185C49.8497 53.3006 49.5755 52.5884 49.6116 51.8573C49.648 51.1259 49.9916 50.4447 50.5573 49.9805C51.6469 49.1476 53.1879 49.2665 54.137 50.2562L62.0296 58.149L63.1602 57.0184L57.7975 51.6541V27.9979C57.7947 25.791 56.0064 24.0028 53.7996 24ZM56.1983 50.0549L55.2676 49.1242C53.7336 47.557 51.2665 47.3937 49.5395 48.7456C48.626 49.4964 48.0717 50.5986 48.0139 51.7802C47.9563 52.9616 48.4001 54.1123 49.2364 54.9491L54.3777 60.0906C52.4603 63.1803 51.4321 66.7392 51.4065 70.3753H33.0107C31.6862 70.3753 30.612 69.301 30.612 67.9765V65.5778H50.6013V63.9787H30.612V30.3966H56.1983V50.0549ZM30.612 28.7974H56.1983V27.9979C56.1983 26.6734 55.1241 25.5991 53.7996 25.5991H33.0107C31.6862 25.5991 30.612 26.6734 30.612 27.9979V28.7974ZM60.155 42.6005L59.0768 43.7791L63.9804 48.2743C65.1348 49.3363 65.7928 50.8327 65.7932 52.4009V71.9744H67.3923V52.4009C67.3904 50.3839 66.5444 48.4606 65.0592 47.0955L60.155 42.6005ZM33.8103 38.3923H37.0086C37.8919 38.3923 38.6077 37.6765 38.6077 36.7932V33.5949C38.6077 32.7116 37.8919 31.9957 37.0086 31.9957H33.8103C32.9269 31.9957 32.2111 32.7116 32.2111 33.5949V36.7932C32.2111 37.6765 32.9269 38.3923 33.8103 38.3923ZM33.8103 33.5949H37.0086V36.7932H33.8103V33.5949ZM45.0043 38.3923H41.806C40.9227 38.3923 40.2068 37.6765 40.2068 36.7932V33.5949C40.2068 32.7116 40.9227 31.9957 41.806 31.9957H45.0043C45.8876 31.9957 46.6034 32.7116 46.6034 33.5949V36.7932C46.6034 37.6765 45.8876 38.3923 45.0043 38.3923ZM45.0043 33.5949H41.806V36.7932H45.0043V33.5949ZM49.8017 38.3923H53C53.8834 38.3923 54.5992 37.6765 54.5992 36.7932V33.5949C54.5992 32.7116 53.8834 31.9957 53 31.9957H49.8017C48.9184 31.9957 48.2026 32.7116 48.2026 33.5949V36.7932C48.2026 37.6765 48.9184 38.3923 49.8017 38.3923ZM49.8017 33.5949H53V36.7932H49.8017V33.5949ZM37.0086 46.3881H33.8103C32.9269 46.3881 32.2111 45.6722 32.2111 44.7889V41.5906C32.2111 40.7073 32.9269 39.9915 33.8103 39.9915H37.0086C37.8919 39.9915 38.6077 40.7073 38.6077 41.5906V44.7889C38.6077 45.6722 37.8919 46.3881 37.0086 46.3881ZM37.0086 41.5906H33.8103V44.7889H37.0086V41.5906ZM33.8103 54.3838H37.0086C37.8919 54.3838 38.6077 53.668 38.6077 52.7846V49.5864C38.6077 48.703 37.8919 47.9872 37.0086 47.9872H33.8103C32.9269 47.9872 32.2111 48.703 32.2111 49.5864V52.7846C32.2111 53.668 32.9269 54.3838 33.8103 54.3838ZM33.8103 49.5864H37.0086V52.7846H33.8103V49.5864ZM45.0043 46.3881H41.806C40.9227 46.3881 40.2068 45.6722 40.2068 44.7889V41.5906C40.2068 40.7073 40.9227 39.9915 41.806 39.9915H45.0043C45.8876 39.9915 46.6034 40.7073 46.6034 41.5906V44.7889C46.6034 45.6722 45.8876 46.3881 45.0043 46.3881ZM45.0043 41.5906H41.806V44.7889H45.0043V41.5906ZM49.8017 46.3881H53C53.8834 46.3881 54.5992 45.6722 54.5992 44.7889V41.5906C54.5992 40.7073 53.8834 39.9915 53 39.9915H49.8017C48.9184 39.9915 48.2026 40.7073 48.2026 41.5906V44.7889C48.2026 45.6722 48.9184 46.3881 49.8017 46.3881ZM49.8017 41.5906H53V44.7889H49.8017V41.5906ZM45.0043 54.3838H41.806C40.9227 54.3838 40.2068 53.668 40.2068 52.7846V49.5864C40.2068 48.703 40.9227 47.9872 41.806 47.9872H45.0043C45.8876 47.9872 46.6034 48.703 46.6034 49.5864V52.7846C46.6034 53.668 45.8876 54.3838 45.0043 54.3838ZM45.0043 49.5864H41.806V52.7846H45.0043V49.5864ZM33.8103 62.3795H37.0086C37.8919 62.3795 38.6077 61.6637 38.6077 60.7804V57.5821C38.6077 56.6988 37.8919 55.9829 37.0086 55.9829H33.8103C32.9269 55.9829 32.2111 56.6988 32.2111 57.5821V60.7804C32.2111 61.6637 32.9269 62.3795 33.8103 62.3795ZM33.8103 57.5821H37.0086V60.7804H33.8103V57.5821ZM45.0043 62.3795H41.806C40.9227 62.3795 40.2068 61.6637 40.2068 60.7804V57.5821C40.2068 56.6988 40.9227 55.9829 41.806 55.9829H45.0043C45.8876 55.9829 46.6034 56.6988 46.6034 57.5821V60.7804C46.6034 61.6637 45.8876 62.3795 45.0043 62.3795ZM45.0043 57.5821H41.806V60.7804H45.0043V57.5821ZM44.2047 67.177H42.6056V68.7761H44.2047V67.177Z" fill="#495567"/>
</g>
</svg>
